X:773
%%etbk:tnset id:510,pos:1,rep:3x,ant:
%%etbk:pldat 2016-08-18T18:36,2016-08-17T15:55,2016-08-16T15:53,2016-08-15T19:03,2016-08-12T16:33,2016-08-11T18:38,2016-08-10T15:55,2016-08-09T15:53,2016-08-08T18:29,2016-08-03T15:57,2016-06-09T18:45,2016-06-09T18:42,2016-06-08T16:02,2016-06-07T15:59,2016-06-06T18:19,2016-06-04T15:08,2016-06-02T18:24,2016-06-01T16:30,2016-05-31T16:47,2016-05-30T18:38,2016-05-29T11:36,2016-05-26T18:39,2016-05-25T16:44,2016-05-24T16:00,2016-05-19T19:34,2016-05-18T17:37,2016-05-17T17:30,2016-05-16T15:51,2016-05-15T15:49,2016-05-14T17:09,2016-05-13T16:27,2016-05-12T18:38,2016-05-11T16:21,2016-05-10T19:22,2016-05-09T19:03,2016-05-04T16:49,2016-05-03T17:47,2016-04-30T17:24,2016-04-28T18:25,2016-04-23T16:41,2016-04-20T10:26,2016-04-18T18:28,2016-04-17T15:30
T:Merry-Go-Round
Z: Piano Box Version by Martin Fleischmann
H: Created 2016-04-17 /  Last Modified 2016-05-04
C:Klaus Pfister
R: Polka
L:1/4
M:2/2
K:Dmaj
P:Part 1 (2x)
|:"F#" !2!F2 !4!c F | !5!d !2!F c !2!F |"G" !1!G2 G F | !1!G !4!B A G |"F#" !2!F2 c F | d F c F |"G" !1!G !4!d c/!2!B/ A | !2!B !1!A !2!G !3!A |
"F#" !2!F2 c F | d F c F |"G" G2 G F | !1!G/!3!A/ B A G |"F#" !2!F !4!B !5!d !4!B | !5!c2 "3"c/B/ A |"G" "2"B2 B/A/ G |1 !3!A B A G :|2 !1!A B d !5!g|
|:"F#" !4!f f !2!c f | z !2!c"G" !3!d2- | d !2!c d !4!e | !2!d !1!c d e |"F#" !4!f f c f | z c"em" B2- | B !5!b a/g/ f | a g f !1!e |
"F#" !4!f f c f | z !2!c"G" !3!d2- | d c d e | d c d e |"G" d d c d | z c !1!!2!B2- |"^last time to" B A B BO |1 A B d g :|2"A" A !3!G !2!F !1!E||
P: Interlude
O A4-"A" |] "D" F4- | F4 |"C" G4- | G4 |"D" A4- | A4 |"C" =c4 |"D" d z z2 ||
P: Part 2 (3x)
|:"D" !1!A2A d | f d A B |"C" !3!=c3/2 B/ c d | =c B !1!A !1!G |"D" !1!A2 A d | f d A B | "C" =c/B/A/B/ c e |1"D" d !1!A !2!F !3!G :|2"Dm" d A d z| 
|:[K:Dmin]"dm" !3!f d/e/ f d | "A7" g/f/e/f/ g e |"dm" f d/e/ f !1!d | "A7" !5!e^cBA |
"dm" f d/e/ f d | "A7" g/f/e/f/ g e |"dm" f d/e/ f !1!d | "A7" !3!^c/B/AA2 :|
P: Part 3 (3x)
[K:D]"bm" !4!f !1!B B f |B B d e |f B !1!B !1!A | !1!B d"A" !3!e d/e/ |"G" !4!f B B g |"D" f e d e |"bm" f !1!B !2!B A |1 !2!B !3!c !1!d e :|2 B !1!A !2!F !1!A| 
|:"em" !2!B !5!e !2!e f | !4!g f e g |"D" !3!f/g/f/e/ d !4!f |"A" !3!e !2!c !1!B !1!A |"em" !1!B !2!e e f | g f e g | "D""^last time to" f/g/f/e/ d fO |"A" !2!e !4!a"bm" b!5! z :|
O"A" e z z a | z2"bm" b z |]


